packages/bezier-icons/icons/hourglass-1.svg

<svg width="24" height="24" viewBox="0 0 24 24" fill="none" xmlns="http://www.w3.org/2000/svg">
<path fill-rule="evenodd" clip-rule="evenodd" d="M17.0001 6.5528C17.0001 6.9338 16.8551 7.3068 16.5821 7.6308L13.6881 11.0678C13.2321 11.6088 13.2321 12.3918 13.6871 12.9318L16.5821 16.3688C16.8551 16.6938 17.0001 17.0668 17.0001 17.4478V19.9998H7.00012V17.4478C7.00012 17.0668 7.14512 16.6938 7.41812 16.3688L10.3131 12.9308C10.7671 12.3918 10.7671 11.6088 10.3131 11.0688L7.41812 7.6318C7.14512 7.3068 7.00012 6.9338 7.00012 6.5518V3.9998H17.0001V6.5528ZM19.0001 6.5528V3.9998C19.0001 2.8978 18.1031 1.9998 17.0001 1.9998H7.00012C5.89712 1.9998 5.00012 2.8978 5.00012 3.9998V6.5518C5.00012 7.4098 5.30712 8.2298 5.88812 8.9198L8.48212 11.9998L5.88912 15.0798C5.30712 15.7708 5.00012 16.5888 5.00012 17.4478V19.9998C5.00012 21.1028 5.89712 21.9998 7.00012 21.9998H17.0001C18.1031 21.9998 19.0001 21.1028 19.0001 19.9998V17.4478C19.0001 16.6008 18.6851 15.7598 18.1121 15.0798L15.5181 11.9998L18.1121 8.9188C18.6931 8.2288 19.0001 7.4098 19.0001 6.5528ZM11.9947 16.4971L11.9367 16.5041L11.9366 16.5041C11.8847 16.5111 11.8809 16.5116 10.1037 17.0191C8.45194 17.4917 8.09692 17.5933 8.02062 17.7985C7.99973 17.8547 7.99973 17.9186 7.99973 18.0001V18.5001V19.0001H8.49973H15.4997H15.9997V18.5001V18.0001C15.9997 17.9188 15.9997 17.8549 15.9789 17.7988C15.9025 17.5933 15.5468 17.4917 13.8887 17.0181L13.8887 17.0181L13.8884 17.018C12.1437 16.5209 12.0999 16.5084 12.0552 16.5035L12.0517 16.5031L11.9947 16.4971ZM15.5001 5.001H16.0001V5.501V6.554C16.0001 6.56238 16.0001 6.57039 15.9998 6.57839C15.9936 6.74877 15.8551 6.91433 12.7661 10.607C12.5761 10.835 12.2961 10.966 12.0001 10.966C11.7041 10.966 11.4241 10.835 11.2331 10.607C8.14508 6.91433 8.00662 6.74877 8.00041 6.57839C8.00012 6.57039 8.00012 6.56238 8.00012 6.554V5.501V5.001H8.50012H15.5001Z" fill="#313234"/>
</svg>

<svg xmlns="http://www.w3.org/2000/svg" width="24" height="24" fill="none" viewBox="0 0 24 24"><path fill="#313234" fill-rule="evenodd" d="M17 6.553c0 .38-.145.754-.418 1.078l-2.894 3.437a1.44 1.44 0 0 0 0 1.864l2.894 3.437c.273.325.418.698.418 1.079V20H7v-2.552c0-.381.145-.754.418-1.08l2.895-3.437a1.44 1.44 0 0 0 0-1.862L7.418 7.632C7.145 7.307 7 6.934 7 6.552V4h10zm2 0V4c0-1.102-.897-2-2-2H7c-1.103 0-2 .898-2 2v2.552c0 .858.307 1.678.888 2.368L8.482 12 5.89 15.08C5.307 15.77 5 16.589 5 17.448V20c0 1.103.897 2 2 2h10c1.103 0 2-.897 2-2v-2.552c0-.847-.315-1.688-.888-2.368L15.518 12l2.594-3.081c.581-.69.888-1.51.888-2.366m-7.005 9.944-.058.007c-.052.007-.056.008-1.833.515-1.652.473-2.007.574-2.083.78C8 17.855 8 17.919 8 18v1h8v-1c0-.081 0-.145-.021-.201-.076-.206-.432-.307-2.09-.78v-.001c-1.745-.497-1.79-.51-1.834-.515h-.003zM15.5 5.001h.5v1.577c-.006.17-.145.336-3.234 4.029a.996.996 0 0 1-1.533 0C8.145 6.914 8.007 6.749 8 6.578V5.001h7.5" clip-rule="evenodd"/></svg>
